X:43
T:Song for Ireland                                                                                  
M:C                                                                                                 
L:1/8                                                                                               
K:D                                                                                                 
D4 E2 DE|F4 EGBA|d2 AD G2 FE|F4 E/D/B, DE |: F F2 ((F F2) ED)|E6 z A,|                              
G4 F E2 D|B,A,3 B, D2 (D|D4) z4| F F2 (F F)E D (E2|E6) z A,| G3 G (FE) D|                           
B,A,3 B, D2 (D|D4) z4|\                                                                             
M:3/2                                                                                               
G4 F(G G2) D(B A3) A|\                                                                              
M:C                                                                                                 
(A6 A)G|F2 D(D D3) D|D D3 E2 F(E|E4) z4|                                                            
G A2 (B A3) A|A2 D(D D2) z F|\                                                                      
M:3/2                                                                                               
F/E/DD/D/(A A)(D D2) (D/E/(FF))E|\                                                                  
M:C                                                                                                 
E6 z D|                                                                                             
G A2 (B A3) A| A2 (F/E/D) (E4|E2) z D G3 G| (F E2) D (B,2 D)(D|D8) :|
